X:99
T: MEINST DU DENN ICH SOLL MICH KRAENKEN
N: E0699D
O: Europa, Mitteleuropa, Deutschland, Rheinland
R: Liebes - Lied, Leid, Klage
M: 3/4
L: 1/8
K: D
FG | A3FBA | ACE2
EF | G3EAG | F4
FG | A3FBA | A2G2
EF | G3EAC | D4

@@@ Tune index: 4412
